X: 2
T: The Boys of Blue Hill
P: piffero b0082
O:
%R: reel
F: http://ancients.sudburymuster.org/mus/ssp/pdf/bluehillF.pdf
Z: 2019 John Chambers <jc:trillian.mit.edu>
M: 2/4
L: 1/16
K: D
d2 |\
BAFA DAFA | BA (3(Bcd) e2de | fa (3(agf) egfe | d(fe)d B2d2 | BAFA DAFA |
BA (3(Bcd) e2de | fa (3(agf) egfe | d2f2 d2 :: e2 | agfg a2gf | efga b2ag |
fagf egfe | dfed B2d2 | BAFA DAFA | BA (3(Bcd) e2de | fa (3(agf) egfe | d2f2 d2 :|

%%center (before the after drum bridge)


